X: 1
T: Bonded
M: 4/4
L: 1/8
R: reel
K: Emin
BcBG EBBB|BcBG EGFE|FGAF GADE|FGAF GAcB|
BcBG E2 (3BBB|BcBG EGFE|FA (3AAA BdAF|1 GBFB E4:|2 GBFB E2 d^d||
e2 ba ge (3eee|Beec eece|B2 ba ge (3eee|gaab agfg|
e2 ba ge (3eee|BcBG EGFE|FA (3AAA BdAF|1 GBFB E2 d^d:|2 GBFB E4||
